X: 43044
T: Wind From Denmark, The
R: jig
M: 6/8
K: Bminor
|:"Bm"BFB dFB|BFB eBF|BFB dFB|"A"BFB A3|
"Bm"BFB dFB|BFB eBF|"G"ABc dcB|"A"ABc B3:|
|:"D"fed B2B|"A"cBB cBA|"D"fed B2B|"A"ABc B3|
"D"fed B2B|"A"cBB dBB|"G"eAA "D"fed|"A"ABc "Bm"B3:|

